icons/op-read-all-16.svg

<svg width="16" height="16" viewBox="0 0 16 16" fill="none" xmlns="http://www.w3.org/2000/svg">
<path d="M5.67821 1.24844C5.9275 1.08575 6.21115 1 6.5 1C6.78885 1 7.0725 1.08575 7.32179 1.24844L12.1968 4.00566C12.6945 4.33077 13 4.92611 13 5.56908V11.1881C13 11.6686 12.8288 12.1295 12.524 12.4693C12.2193 12.8091 11.806 13 11.375 13H1.625C1.19402 13 0.780698 12.8091 0.475951 12.4693C0.171205 12.1295 0 11.6686 0 11.1881V5.56908C0 4.92611 0.306429 4.33077 0.803214 4.00566L5.67821 1.24844ZM6.617 2.58719C6.58143 2.56429 6.54108 2.55223 6.5 2.55223C6.45892 2.55223 6.41857 2.56429 6.383 2.58719L2.00014 5.02344L5.07743 7.57461C5.49827 7.2592 5.99385 7.09074 6.50093 7.09074C7.00801 7.09074 7.50359 7.2592 7.92443 7.57461L10.9999 5.02344L6.617 2.58719ZM10.3536 11.4469L7.21686 8.92061C7.0124 8.74159 6.75996 8.64428 6.5 8.64428C6.24004 8.64428 5.9876 8.74159 5.78314 8.92061L2.64643 11.4469H10.3536ZM11.6071 6.42534L9.11207 8.60585L11.6071 10.57V6.42534ZM3.88793 8.60585L1.39286 6.42534V10.57L3.88793 8.60585Z" fill="#1F2328"/>
<path fill-rule="evenodd" clip-rule="evenodd" d="M13.4697 5.46967C13.7626 5.17678 14.2374 5.17678 14.5303 5.46967L14.7374 5.67678C15.0656 6.00497 15.25 6.45008 15.25 6.91421V13.5C15.25 14.4665 14.4665 15.25 13.5 15.25H3C2.58579 15.25 2.25 14.9142 2.25 14.5C2.25 14.0858 2.58579 13.75 3 13.75H13.5C13.6381 13.75 13.75 13.6381 13.75 13.5V6.91421C13.75 6.84791 13.7237 6.78432 13.6768 6.73744L13.4697 6.53033C13.1768 6.23744 13.1768 5.76256 13.4697 5.46967Z" fill="#1F2328"/>
</svg>

<svg xmlns="http://www.w3.org/2000/svg" width="16" height="16" viewBox="0 0 16 16"><path d="M5.678 1.248C5.928 1.086 6.211 1 6.5 1c.289 0 .572.086.822.248l4.875 2.758c.497.325.803.92.803 1.563v5.619c0 .481-.171.942-.476 1.281-.305.34-.718.531-1.149.531h-9.75c-.431 0-.844-.191-1.149-.531A1.919 1.919 0 0 1 0 11.188V5.569c0-.643.306-1.238.803-1.563l4.875-2.758Zm.939 1.339a.216.216 0 0 0-.234 0L2 5.023l3.077 2.552a2.368 2.368 0 0 1 1.424-.484c.507 0 1.003.168 1.423.484L11 5.023 6.617 2.587Zm3.737 8.86L7.217 8.921a1.09 1.09 0 0 0-.717-.277c-.26 0-.512.098-.717.277l-3.137 2.526h7.708Zm1.253-5.022L9.112 8.606l2.495 1.964V6.425ZM3.888 8.606 1.393 6.425v4.145l2.495-1.964Z"/><path d="M13.47 5.47a.749.749 0 0 1 1.06 0l.207.207c.329.328.513.773.513 1.237V13.5a1.75 1.75 0 0 1-1.75 1.75H3a.75.75 0 0 1 0-1.5h10.5a.25.25 0 0 0 .25-.25V6.914a.25.25 0 0 0-.073-.177l-.207-.207a.749.749 0 0 1 0-1.06Z"/></svg>
